X:84
T:John McQuinn's Favorite
B:Terry "Cuz" Teahan "Sliabh Luachra on Parade" 1980
Z:Patrick Cavanagh
M:2/4
L:1/8
R:Polka
K:D
| Ad Bc/B/ | Ad fd | e2 ed | ea fd | 
Ad GA/G/ | Ad fd | ef ag | fd d2 :| 
| e2 ef | af g2 | f2 fd | fe dc | 
e2 ef | af g2 | fa ef | d2 d2 :|| 

